X: 24777
T: Maggie
R: hornpipe
M: 4/4
K: Gmajor
|:B|G>ED>E G>AB>e|d>BA>G E>AA>B|G>ED>E G>AB>e|d>BA>B G3:|
|:g|g>fe>d e>dB>e|d>BA>G E>AA>f|g>ef>d e>dB>e|d>BA>B G3:|

